assets/icons/bowtie/uE61F-comment-next.svg

<svg xmlns="http://www.w3.org/2000/svg" viewBox="0 0 448 448"><path d="M221.823 112l-90.51 90.51-22.627-22.627 51.882-51.883h-160.568v-32h160.568l-51.882-51.882 22.627-22.627 90.51 90.51zm66.177-16v32h128v192h-166.14l-57.86 52.063v-52.063h-64v-64h-32v96h64v91.938l102.14-91.938h185.86v-256h-160z"/></svg>

<svg xmlns="http://www.w3.org/2000/svg" viewBox="0 0 448 448"><path d="M221.823 112l-90.51 90.51-22.627-22.627L160.568 128H0V96h160.568l-51.882-51.882 22.627-22.627 90.51 90.51zM288 96v32h128v192H249.86L192 372.063V320h-64v-64H96v96h64v91.938L262.14 352H448V96H288z"/></svg>
